X:218
T:Morgiana
R:jig 48
M:6/8
L:1/8
Q:1/4=140
K:D
|:A|AFA f2e|dcB A2A|AFA dAf|gfe edB|
AFA f2e|dcB A2A|AFA dAd|fec d2:|]
e|efe dcB|AAA g2A|fAA dAA|fAA e3|
efe dcB|AAA g2A|fAA dAA|edc BAG|
FDF F2A|FDF F2A|G2B F2A|E3 E2 A|
FDF F2A|FDF F2A|B2d c2e|d3 d2|]
e|efe dcB|AAA g2A|fAA dAA|fAA e3|
efe dcB|AAA g2A|fAA dAA|edc BAG|
FDF F2A|FDF F2A|G2B F2A|E3 E2 A|
FDF F2A|FDF F2A|B2d c2e|d3 d2|]

